X:5
T:Carnaval de Venise
T:Air vari\'e pour Cornet, Trompette, Bugle, Baryton ou Tenorhorn
C:Arban
M:6/8
L:1/16
Q:3/8=42
K:F
P:Variation III
"^Andante"z "_dolce"(c=Bc)|(d3c=Bc f)(.e.d.c._B.A)|c=B _B4 z2 z (^FGA)|
(B3AB=B) (c^ced=c_B)|B2 LA4 z2 z c=Bc|(d3c=Bc f)(.e.d.c._B.A)|
c=B_B4 z2 z (^FGA)|(B3AB=B) (c^ced=c_B)|B2 LA4 z2z2 c2|
c3(AB=B c^cdegf)|f2 Le4 z2 z (=c=Bc)|(_d3c=Bc =d_dc=B_BE)|G2LF4 z2 z2 c2|
c3(AB=B c^cdegf)|f2 Le4 z2 z (=c=Bc)|(_d3c=Bc =d_dc=B_BE)|G2LF4 z2 z2 c2|
(d/c/)c/c/ (d/c/)c/c/ (d>c) (B/A/)A/A/ (B/A/)A/A/ (B>A)|(c/B/)B/B/ (c/B/)B/B/ (c>B) G2 (^F/G/)G/G/ (^G/A/)A/A/|
B2 (=G/A/)A/A/ (B/=B/)B/B/ (d/c/)c/c/ (g/f/)e/d/ (c/B/)A/G/|(A/F/)A/c/ (f/e/d/c/) (c/B/A/G/) A2 z2 c2|
(d/c/)c/c/ (d/c/)c/c/ (d>c) (B/A/)A/A/ (B/A/)A/A/ (B>A)|(c/B/)B/B/ (c/B/)B/B/ (c>B) G2 (^F/G/)G/G/ (^G/A/)A/A/|
B2 (=G/A/)A/A/ (B/=B/)B/B/ (d/c/)c/c/ (g/f/)e/d/ (c/B/)A/G/|(A/F/)A/c/ (f/e/d/c/) (c/B/A/G/) A2 z2 c2|
(f/e/).d/.c/ (e/d/).c/.B/ (d/c/).B/.A/ (c/B/).A/.G/ (B/A/).G/.F/ (G/F/).E/.D/|C(D/E/ F/G/A/B/ c/d/e/f/ g2) z/ (c/=B/c/ d/c/B/c/)|
(g/f/).e/.d/ (f/e/).d/.c/ (e/d/).c/.B/ (d/c/).B/.A/ (c/B/).A/.G/ (c/B/).A/.G/|F(C/D/ E/F/G/A/ B/c/d/e/ f2) z2 c2|
(f/e/).d/.c/ (e/d/).c/.B/ (d/c/).B/.A/ (c/B/).A/.G/ (B/A/).G/.F/ (G/F/).E/.D/|C(D/E/ F/G/A/B/ c/d/e/f/ g2) z/ (c/=B/c/ d/c/B/c/)|
(g/f/).e/.d/ (f/e/).d/.c/ (e/d/).c/.B/ (d/c/).B/.A/ (c/B/).A/.G/ (c/B/).A/.G/|F(C/D/ E/F/G/A/ B/c/d/e/ f2) z2 z2||


